humanity-icon-theme/Humanity/devices/16/gnome-dev-harddisk-1394.svg

<?xml version="1.0" encoding="UTF-8" standalone="no"?>
<!-- Created with Inkscape (http://www.inkscape.org/) -->

<svg
   xmlns:svg="http://www.w3.org/2000/svg"
   xmlns="http://www.w3.org/2000/svg"
   xmlns:xlink="http://www.w3.org/1999/xlink"
   version="1.0"
   width="16"
   height="16"
   id="svg3786">
  <defs
     id="defs3788">
    <linearGradient
       id="linearGradient7056">
      <stop
         id="stop7064"
         style="stop-color:#f0f0f1;stop-opacity:1"
         offset="0" />
      <stop
         id="stop7060"
         style="stop-color:#ddddde;stop-opacity:1"
         offset="1" />
    </linearGradient>
    <linearGradient
       id="linearGradient3484">
      <stop
         id="stop3486"
         style="stop-color:#aaa;stop-opacity:1"
         offset="0" />
      <stop
         id="stop3488"
         style="stop-color:#c8c8c8;stop-opacity:1"
         offset="1" />
    </linearGradient>
    <linearGradient
       id="linearGradient2215">
      <stop
         id="stop2223"
         style="stop-color:#aaa;stop-opacity:1"
         offset="0" />
      <stop
         id="stop2219"
         style="stop-color:#646464;stop-opacity:1"
         offset="1" />
    </linearGradient>
    <linearGradient
       x1="-35.53907"
       y1="-144.20657"
       x2="-35.53907"
       y2="-108.32133"
       id="linearGradient7453"
       xlink:href="#linearGradient7056"
       gradientUnits="userSpaceOnUse"
       gradientTransform="matrix(0.2359882,0,0,0.3555555,18.232394,51.440112)" />
    <linearGradient
       x1="7.8514447"
       y1="19.967693"
       x2="7.8514447"
       y2="7.034781"
       id="linearGradient7455"
       xlink:href="#linearGradient3484"
       gradientUnits="userSpaceOnUse"
       gradientTransform="matrix(0.6451613,0,0,0.9797594,0.258064,-6.7257265)" />
    <linearGradient
       x1="46.427349"
       y1="101.88274"
       x2="46.427349"
       y2="85.788147"
       id="linearGradient7458"
       xlink:href="#linearGradient2215"
       gradientUnits="userSpaceOnUse"
       gradientTransform="matrix(0.1258389,0,0,0.19859933,0.13144651,-5.1683895)" />
  </defs>
  <path
     d="m 0.41963038,12.521846 c 5.05264192,0 10.10528162,0 15.15792362,0 0.04071,0.125462 0.0066,0.181743 0.01782,0.333773 -0.308148,2.700977 -0.0731,2.144381 -0.787341,2.725436 -0.218553,0.03855 -8.8121889,0 -13.6465065,0 C 0.5814493,15 0.70866945,15.633605 0.40181118,12.401808 l 0.0178192,0.120038 z"
     id="rect2992-4"
     style="fill:url(#linearGradient7458);fill-opacity:1;fill-rule:nonzero;stroke:#59595b;stroke-width:0.80362236;stroke-linecap:butt;stroke-linejoin:miter;stroke-miterlimit:4;stroke-opacity:1;stroke-dasharray:none;stroke-dashoffset:0;marker:none;visibility:visible;display:inline;overflow:visible;enable-background:accumulate" />
  <path
     d="M 1.4897093,1.4657632 0.514749,12.488885 C 0.505,12.488885 0.5,12.491788 0.5,12.499999 l 14.999999,0 c 0,-0.0082 -0.005,-0.01111 -0.01475,-0.01111 L 14.479867,1.2478485 c 0,0 -0.187746,-0.74340135 -0.909635,-0.74340135 -0.688148,0 -10.5350353,-0.004447 -11.2600103,-0.004447 -0.75868,0 -0.8205124,0.96576325 -0.8205124,0.96576325 z"
     id="rect2990-9"
     style="fill:url(#linearGradient7453);fill-opacity:1;fill-rule:nonzero;stroke:url(#linearGradient7455);stroke-width:0.99999988;stroke-linecap:round;stroke-linejoin:round;stroke-miterlimit:4;stroke-opacity:1;stroke-dasharray:none;stroke-dashoffset:0;marker:none;visibility:visible;display:inline;overflow:visible;enable-background:accumulate" />
  <path
     d="m 1.4762913,12.5 13.0474177,0"
     id="path2215-9"
     style="opacity:0.8;fill:none;stroke:white;stroke-width:0.99999988;stroke-linecap:round;stroke-linejoin:round;stroke-miterlimit:4;stroke-opacity:1;stroke-dasharray:none;display:inline" />
  <rect
     width="12"
     height="1.5"
     rx="0.5"
     ry="0.75"
     x="2"
     y="12.999999"
     id="rect4015"
     style="opacity:0.5;fill:white;fill-opacity:1;stroke:none" />
  <rect
     width="12"
     height="1"
     rx="0.5"
     ry="0.5"
     x="2"
     y="13"
     id="rect6287-2"
     style="fill:#282828;fill-opacity:1;stroke:none" />
  <path
     d="M 11.40625,2.8125 A 0.20341016,0.20341016 0 0 0 11.375,2.84375 c -0.654303,0.4942222 -1.365743,0.9425807 -2,1.53125 A 0.20341016,0.20341016 0 0 0 9.34375,4.40625 0.20341016,0.20341016 0 0 0 9.3125,4.4375 a 0.20341016,0.20341016 0 0 0 0,0.0625 0.20341016,0.20341016 0 0 0 0,0.0625 0.20341016,0.20341016 0 0 0 0,0.03125 0.20341016,0.20341016 0 0 0 0.03125,0.0625 0.20341016,0.20341016 0 0 0 0,0.03125 C 9.7965334,5.1321375 10.348175,5.4676521 10.875,5.75 a 0.20341016,0.20341016 0 0 0 0.03125,0 0.20341016,0.20341016 0 0 0 0.03125,0 0.20341016,0.20341016 0 0 0 0.03125,0.03125 c 0.230064,-0.011265 0.436493,-0.1401144 0.59375,-0.25 C 11.719757,5.4213644 11.842603,5.3189589 11.96875,5.25 A 0.20341016,0.20341016 0 0 0 12,5.21875 c 0.364848,-0.2750942 0.809755,-0.5484121 1.15625,-0.9375 A 0.20341016,0.20341016 0 0 0 13.1875,4.25 a 0.20341016,0.20341016 0 0 0 0,-0.0625 0.20341016,0.20341016 0 0 0 0,-0.03125 0.20341016,0.20341016 0 0 0 0,-0.0625 0.20341016,0.20341016 0 0 0 -0.03125,-0.0625 0.20341016,0.20341016 0 0 0 0,-0.03125 C 12.674235,3.5286834 12.118803,3.2186881 11.625,2.84375 a 0.20341016,0.20341016 0 0 0 -0.03125,-0.03125 0.20341016,0.20341016 0 0 0 -0.03125,0 0.20341016,0.20341016 0 0 0 -0.0625,0 0.20341016,0.20341016 0 0 0 -0.0625,0 0.20341016,0.20341016 0 0 0 -0.03125,0 z M 4.6875,2.875 A 0.20341016,0.20341016 0 0 0 4.65625,2.90625 C 4.0634297,3.3573382 3.4091781,3.7532934 2.84375,4.3125 a 0.20341016,0.20341016 0 0 0 0,0.03125 0.20341016,0.20341016 0 0 0 -0.03125,0.0625 0.20341016,0.20341016 0 0 0 0,0.03125 0.20341016,0.20341016 0 0 0 0,0.0625 0.20341016,0.20341016 0 0 0 0,0.0625 C 2.9504882,4.8003455 3.2046918,4.9381223 3.4375,4.9375 3.6559815,4.936916 3.8463527,4.8300682 4,4.65625 4.0100752,4.6448521 4.0216316,4.6369525 4.03125,4.625 4.5070535,4.284613 4.9716958,3.935395 5.4375,3.59375 A 0.20341016,0.20341016 0 0 0 5.46875,3.5625 0.20341016,0.20341016 0 0 0 5.5,3.53125 0.20341016,0.20341016 0 0 0 5.5,3.5 0.20341016,0.20341016 0 0 0 5.5,3.4375 0.20341016,0.20341016 0 0 0 5.5,3.375 0.20341016,0.20341016 0 0 0 5.5,3.34375 0.20341016,0.20341016 0 0 0 5.46875,3.3125 0.20341016,0.20341016 0 0 0 5.4375,3.28125 C 5.260088,3.1504915 5.0737338,3.0274889 4.90625,2.90625 A 0.20341016,0.20341016 0 0 0 4.875,2.875 a 0.20341016,0.20341016 0 0 0 -0.0625,0 0.20341016,0.20341016 0 0 0 -0.03125,0 0.20341016,0.20341016 0 0 0 -0.0625,0 0.20341016,0.20341016 0 0 0 -0.03125,0 z M 6.03125,3.84375 A 0.20341016,0.20341016 0 0 0 6,3.875 L 4.15625,5.21875 A 0.20341016,0.20341016 0 0 0 4.125,5.25 0.20341016,0.20341016 0 0 0 4.09375,5.28125 a 0.20341016,0.20341016 0 0 0 0,0.03125 0.20341016,0.20341016 0 0 0 0,0.0625 0.20341016,0.20341016 0 0 0 0,0.0625 0.20341016,0.20341016 0 0 0 0,0.03125 A 0.20341016,0.20341016 0 0 0 4.125,5.5 0.20341016,0.20341016 0 0 0 4.15625,5.53125 c 0.1415823,0.1011343 0.3024925,0.289422 0.5625,0.375 a 0.20341016,0.20341016 0 0 0 0.03125,0 0.20341016,0.20341016 0 0 0 0.0625,0 0.20341016,0.20341016 0 0 0 0.03125,0 A 0.20341016,0.20341016 0 0 0 4.90625,5.875 C 5.5465233,5.4652814 6.1441028,5.000797 6.75,4.5625 A 0.20341016,0.20341016 0 0 0 6.78125,4.53125 0.20341016,0.20341016 0 0 0 6.8125,4.5 a 0.20341016,0.20341016 0 0 0 0,-0.03125 0.20341016,0.20341016 0 0 0 0,-0.0625 0.20341016,0.20341016 0 0 0 0,-0.0625 0.20341016,0.20341016 0 0 0 0,-0.03125 A 0.20341016,0.20341016 0 0 0 6.78125,4.28125 0.20341016,0.20341016 0 0 0 6.75,4.25 C 6.5811894,4.1281999 6.4233571,4.004651 6.25,3.875 a 0.20341016,0.20341016 0 0 0 -0.03125,-0.03125 0.20341016,0.20341016 0 0 0 -0.03125,0 0.20341016,0.20341016 0 0 0 -0.0625,0 0.20341016,0.20341016 0 0 0 -0.0625,0 0.20341016,0.20341016 0 0 0 -0.03125,0 z m 1.8125,1.1875 A 0.20341016,0.20341016 0 0 0 7.8125,5.0625 c -0.5075633,0.068261 -1.0391271,0.1909095 -1.5,0.53125 A 0.20341016,0.20341016 0 0 0 6.28125,5.625 C 6.1086281,5.8055576 5.9255635,6.0076061 5.8125,6.28125 c -0.1130635,0.2736439 -0.1455702,0.624986 0,0.9375 0.2112462,0.4835008 0.5775521,0.7812594 1,0.96875 0.4224479,0.1874906 0.8908553,0.2443767 1.3125,0.21875 0.7301701,-0.056158 1.6127777,-0.3360169 1.96875,-1.1875 a 0.20341016,0.20341016 0 0 0 0,-0.03125 C 10.23962,6.8119871 10.192999,6.438023 10.03125,6.125 9.8695014,5.811977 9.600713,5.554018 9.3125,5.40625 8.8530013,5.1388729 8.3472444,5.0248019 7.84375,5.03125 z m 0.0625,1 c 0.2178766,-0.00893 0.4780402,0.018753 0.6875,0.125 0.2094598,0.106247 0.3867107,0.2494894 0.4375,0.5 C 9.0653675,6.8881467 8.963532,7.0454957 8.8125,7.1875 8.661468,7.3295043 8.4312059,7.4503529 8.25,7.46875 8.0075742,7.5000489 7.7397022,7.481972 7.5,7.40625 7.2602978,7.330528 7.0677337,7.1977305 6.9375,6.96875 6.8546082,6.8089424 6.8840212,6.6537212 6.96875,6.5 7.0534788,6.3462788 7.2091974,6.2144853 7.34375,6.15625 7.5170694,6.0667672 7.6951782,6.0410878 7.90625,6.03125 z m 1.3125,2.8125 -2.5,0.03125 A 0.20341016,0.20341016 0 0 0 6.6875,8.90625 0.20341016,0.20341016 0 0 0 6.625,8.90625 0.20341016,0.20341016 0 0 0 6.59375,8.9375 0.20341016,0.20341016 0 0 0 6.5625,8.96875 0.20341016,0.20341016 0 0 0 6.53125,9 a 0.20341016,0.20341016 0 0 0 0,0.03125 0.20341016,0.20341016 0 0 0 0,0.03125 l -0.0625,0.53125 a 0.20341016,0.20341016 0 0 0 0,0.0625 0.20341016,0.20341016 0 0 0 0,0.03125 A 0.20341016,0.20341016 0 0 0 6.5,9.75 a 0.20341016,0.20341016 0 0 0 0.03125,0.03125 0.20341016,0.20341016 0 0 0 0.0625,0.03125 0.20341016,0.20341016 0 0 0 0.03125,0 0.20341016,0.20341016 0 0 0 0.03125,0.03125 l 2.5625,0 A 0.20341016,0.20341016 0 0 0 9.25,9.8125 a 0.20341016,0.20341016 0 0 0 0.0625,0 A 0.20341016,0.20341016 0 0 0 9.34375,9.78125 0.20341016,0.20341016 0 0 0 9.375,9.75 0.20341016,0.20341016 0 0 0 9.40625,9.6875 0.20341016,0.20341016 0 0 0 9.4375,9.625 l 0,-0.5625 a 0.20341016,0.20341016 0 0 0 -0.03125,-0.03125 0.20341016,0.20341016 0 0 0 0,-0.0625 A 0.20341016,0.20341016 0 0 0 9.375,8.9375 0.20341016,0.20341016 0 0 0 9.34375,8.90625 0.20341016,0.20341016 0 0 0 9.28125,8.875 0.20341016,0.20341016 0 0 0 9.21875,8.84375 z m -2.53125,1.4375 a 0.20341016,0.20341016 0 0 0 -0.03125,0.03125 0.20341016,0.20341016 0 0 0 -0.0625,0 A 0.20341016,0.20341016 0 0 0 6.5625,10.34375 0.20341016,0.20341016 0 0 0 6.53125,10.375 0.20341016,0.20341016 0 0 0 6.5,10.4375 a 0.20341016,0.20341016 0 0 0 0,0.0625 0.20341016,0.20341016 0 0 0 0,0.03125 c 0.00499,0.04704 0.00133,0.118926 0,0.21875 -0.00133,0.09982 -0.035797,0.21647 0.03125,0.34375 a 0.20341016,0.20341016 0 0 0 0.03125,0.03125 0.20341016,0.20341016 0 0 0 0.03125,0.03125 0.20341016,0.20341016 0 0 0 0.0625,0.03125 0.20341016,0.20341016 0 0 0 0.03125,0 0.20341016,0.20341016 0 0 0 0.03125,0.03125 l 2.5,0 A 0.20341016,0.20341016 0 0 0 9.25,11.1875 a 0.20341016,0.20341016 0 0 0 0.0625,0 0.20341016,0.20341016 0 0 0 0.03125,-0.03125 0.20341016,0.20341016 0 0 0 0.03125,-0.03125 0.20341016,0.20341016 0 0 0 0.03125,-0.0625 0.20341016,0.20341016 0 0 0 0,-0.0625 0.20341016,0.20341016 0 0 0 0,-0.03125 c -0.00499,-0.04704 -0.00133,-0.118926 0,-0.21875 0.00133,-0.09982 0.035796,-0.21647 -0.03125,-0.34375 A 0.20341016,0.20341016 0 0 0 9.34375,10.375 0.20341016,0.20341016 0 0 0 9.3125,10.34375 0.20341016,0.20341016 0 0 0 9.25,10.3125 a 0.20341016,0.20341016 0 0 0 -0.03125,0 0.20341016,0.20341016 0 0 0 -0.03125,-0.03125 l -2.5,0 z"
     transform="matrix(0.96340695,0,0,0.95139956,0.2927444,0.3264862)"
     id="path7460"
     style="fill:#969696;fill-opacity:1;stroke:none" />
</svg>

<?xml version="1.0" encoding="UTF-8" standalone="no"?>
<!-- Created with Inkscape (http://www.inkscape.org/) -->
<svg id="svg3786" xmlns="http://www.w3.org/2000/svg" height="16" width="16" version="1.0" xmlns:xlink="http://www.w3.org/1999/xlink">
 <defs id="defs3788">
  <linearGradient id="linearGradient7453" y2="-108.32" gradientUnits="userSpaceOnUse" x2="-35.539" gradientTransform="matrix(.23599 0 0 .35556 18.232 51.44)" y1="-144.21" x1="-35.539">
   <stop id="stop7064" style="stop-color:#f0f0f1" offset="0"/>
   <stop id="stop7060" style="stop-color:#ddddde" offset="1"/>
  </linearGradient>
  <linearGradient id="linearGradient7455" y2="7.0348" gradientUnits="userSpaceOnUse" x2="7.8514" gradientTransform="matrix(.64516 0 0 .97976 .25806 -6.7257)" y1="19.968" x1="7.8514">
   <stop id="stop3486" style="stop-color:#aaa" offset="0"/>
   <stop id="stop3488" style="stop-color:#c8c8c8" offset="1"/>
  </linearGradient>
  <linearGradient id="linearGradient7458" y2="85.788" gradientUnits="userSpaceOnUse" x2="46.427" gradientTransform="matrix(.12584 0 0 .19860 .13145 -5.1684)" y1="101.88" x1="46.427">
   <stop id="stop2223" style="stop-color:#aaa" offset="0"/>
   <stop id="stop2219" style="stop-color:#646464" offset="1"/>
  </linearGradient>
 </defs>
 <path id="rect2992-4" style="stroke-width:.80362;stroke:#59595b;fill:url(#linearGradient7458)" d="m0.41963 12.522h15.158c0.04071 0.12546 0.0066 0.18174 0.01782 0.33377-0.30815 2.701-0.0731 2.1444-0.78734 2.7254-0.21855 0.03855-8.8122 0-13.647 0-0.58015-0.581-0.45293 0.053-0.75979-3.179l0.017819 0.12004z"/>
 <path id="rect2990-9" style="stroke-linejoin:round;stroke:url(#linearGradient7455);stroke-linecap:round;fill:url(#linearGradient7453)" d="m1.4897 1.4658-0.97495 11.023c-0.00975 0-0.01475 0.003-0.01475 0.011h15c0-0.0082-0.005-0.01111-0.01475-0.01111l-1.005-11.241s-0.18775-0.7434-0.90964-0.7434c-0.68815 0-10.535-0.004447-11.26-0.004447-0.75868 0-0.82051 0.96576-0.82051 0.96576z"/>
 <path id="path2215-9" style="opacity:.8;stroke-linejoin:round;stroke:#fff;stroke-linecap:round;fill:none" d="m1.4763 12.5h13.047"/>
 <rect id="rect4015" style="opacity:.5;fill:#fff" rx=".5" ry=".75" height="1.5" width="12" y="13" x="2"/>
 <rect id="rect6287-2" style="fill:#282828" rx=".5" ry=".5" height="1" width="12" y="13" x="2"/>
 <path id="path7460" style="fill:#969696" d="m11.406 2.8125a0.20341 0.20341 0 0 0 -0.031 0.0313c-0.6543 0.49422-1.3657 0.94258-2 1.5312a0.20341 0.20341 0 0 0 -0.0312 0.0312 0.20341 0.20341 0 0 0 -0.0313 0.0313 0.20341 0.20341 0 0 0 0 0.0625 0.20341 0.20341 0 0 0 0 0.0625 0.20341 0.20341 0 0 0 0 0.03125 0.20341 0.20341 0 0 0 0.03125 0.0625 0.20341 0.20341 0 0 0 0 0.03125c0.4527 0.4446 1.0042 0.7802 1.5312 1.0625a0.20341 0.20341 0 0 0 0.03125 0 0.20341 0.20341 0 0 0 0.03125 0 0.20341 0.20341 0 0 0 0.03125 0.03125c0.23006-0.011265 0.43649-0.14011 0.59375-0.25 0.157-0.1098 0.28-0.2122 0.406-0.2812a0.20341 0.20341 0 0 0 0.031 -0.0312c0.36485-0.27509 0.80976-0.54841 1.1562-0.9375a0.20341 0.20341 0 0 0 0.032 -0.0313 0.20341 0.20341 0 0 0 0 -0.0625 0.20341 0.20341 0 0 0 0 -0.03125 0.20341 0.20341 0 0 0 0 -0.0625 0.20341 0.20341 0 0 0 -0.03125 -0.0625 0.20341 0.20341 0 0 0 0 -0.03125c-0.483-0.4713-1.038-0.7813-1.532-1.1562a0.20341 0.20341 0 0 0 -0.03125 -0.03125 0.20341 0.20341 0 0 0 -0.03125 0 0.20341 0.20341 0 0 0 -0.0625 0 0.20341 0.20341 0 0 0 -0.0625 0 0.20341 0.20341 0 0 0 -0.03125 0zm-6.7185 0.0625a0.20341 0.20341 0 0 0 -0.0313 0.0312c-0.5928 0.4511-1.247 0.8471-1.8124 1.4063a0.20341 0.20341 0 0 0 0 0.03125 0.20341 0.20341 0 0 0 -0.03125 0.0625 0.20341 0.20341 0 0 0 0 0.03125 0.20341 0.20341 0 0 0 0 0.0625 0.20341 0.20341 0 0 0 0 0.0625c0.1379 0.2378 0.3921 0.3756 0.6249 0.375 0.2185-0.0006 0.4089-0.1074 0.5625-0.2813 0.0101-0.0113 0.0216-0.0192 0.0312-0.0312 0.4759-0.3404 0.9405-0.6896 1.4063-1.0312a0.20341 0.20341 0 0 0 0.0313 -0.0313 0.20341 0.20341 0 0 0 0.0312 -0.0313 0.20341 0.20341 0 0 0 0 -0.0312 0.20341 0.20341 0 0 0 0 -0.0625 0.20341 0.20341 0 0 0 0 -0.0625 0.20341 0.20341 0 0 0 0 -0.0312 0.20341 0.20341 0 0 0 -0.0312 -0.0313 0.20341 0.20341 0 0 0 -0.0313 -0.0313c-0.1774-0.1307-0.3638-0.2537-0.5313-0.375a0.20341 0.20341 0 0 0 -0.0312 -0.0312 0.20341 0.20341 0 0 0 -0.0625 0 0.20341 0.20341 0 0 0 -0.03125 0 0.20341 0.20341 0 0 0 -0.0625 0 0.20341 0.20341 0 0 0 -0.03125 0zm1.3437 0.9688a0.20341 0.20341 0 0 0 -0.0312 0.0312l-1.8438 1.3438a0.20341 0.20341 0 0 0 -0.0312 0.0312 0.20341 0.20341 0 0 0 -0.0312 0.0312 0.20341 0.20341 0 0 0 0 0.03125 0.20341 0.20341 0 0 0 0 0.0625 0.20341 0.20341 0 0 0 0 0.0625 0.20341 0.20341 0 0 0 0 0.03125 0.20341 0.20341 0 0 0 0.0312 0.0313 0.20341 0.20341 0 0 0 0.0312 0.0312c0.14158 0.10113 0.30249 0.28942 0.5625 0.375a0.20341 0.20341 0 0 0 0.03125 0 0.20341 0.20341 0 0 0 0.0625 0 0.20341 0.20341 0 0 0 0.03125 0 0.20341 0.20341 0 0 0 0.0625 -0.0312c0.6403-0.4097 1.2379-0.8742 1.8438-1.3125a0.20341 0.20341 0 0 0 0.0312 -0.0313 0.20341 0.20341 0 0 0 0.0313 -0.0312 0.20341 0.20341 0 0 0 0 -0.03125 0.20341 0.20341 0 0 0 0 -0.0625 0.20341 0.20341 0 0 0 0 -0.0625 0.20341 0.20341 0 0 0 0 -0.03125 0.20341 0.20341 0 0 0 -0.0313 -0.0313 0.20341 0.20341 0 0 0 -0.0312 -0.0312c-0.1688-0.1218-0.3266-0.2453-0.5-0.375a0.20341 0.20341 0 0 0 -0.03125 -0.03125 0.20341 0.20341 0 0 0 -0.03125 0 0.20341 0.20341 0 0 0 -0.0625 0 0.20341 0.20341 0 0 0 -0.0625 0 0.20341 0.20341 0 0 0 -0.03125 0zm1.8125 1.1875a0.20341 0.20341 0 0 0 -0.0312 0.0312c-0.50756 0.068261-1.0391 0.19091-1.5 0.53125a0.20341 0.20341 0 0 0 -0.0313 0.0312c-0.1726 0.1806-0.3556 0.3826-0.4687 0.6562-0.11306 0.27364-0.14557 0.62499 0 0.9375 0.21125 0.4835 0.57755 0.78126 1 0.96875s0.89086 0.24438 1.3125 0.21875c0.73017-0.056158 1.6128-0.33602 1.9688-1.1875a0.20341 0.20341 0 0 0 0 -0.03125c0.146-0.3754 0.099-0.7494-0.063-1.0624-0.1615-0.313-0.4303-0.571-0.7185-0.7188-0.4595-0.2673-0.9653-0.3814-1.4687-0.375zm0.0625 1c0.21788-0.00893 0.47804 0.018753 0.6875 0.125s0.38671 0.24949 0.4375 0.5c0.0342 0.2318-0.0677 0.3892-0.2187 0.5312s-0.3813 0.2629-0.5625 0.2813c-0.2424 0.0312-0.5103 0.0132-0.75-0.0626-0.2397-0.0757-0.4323-0.2085-0.5625-0.4374-0.0829-0.1599-0.0535-0.3151 0.0313-0.4688 0.0847-0.1537 0.2404-0.2855 0.375-0.3438 0.1733-0.0894 0.3514-0.1151 0.5624-0.125zm1.3125 2.8125-2.5 0.03125a0.20341 0.20341 0 0 0 -0.0312 0.0312 0.20341 0.20341 0 0 0 -0.0625 0 0.20341 0.20341 0 0 0 -0.0312 0.0313 0.20341 0.20341 0 0 0 -0.0313 0.0313 0.20341 0.20341 0 0 0 -0.0313 0.0312 0.20341 0.20341 0 0 0 0 0.03125 0.20341 0.20341 0 0 0 0 0.03125l-0.0625 0.53125a0.20341 0.20341 0 0 0 0 0.0625 0.20341 0.20341 0 0 0 0 0.03125 0.20341 0.20341 0 0 0 0.0313 0.0624 0.20341 0.20341 0 0 0 0.03125 0.03125 0.20341 0.20341 0 0 0 0.0625 0.03125 0.20341 0.20341 0 0 0 0.03125 0 0.20341 0.20341 0 0 0 0.03125 0.03125h2.5625a0.20341 0.20341 0 0 0 0.0313 -0.0313 0.20341 0.20341 0 0 0 0.0625 0 0.20341 0.20341 0 0 0 0.0313 -0.0313 0.20341 0.20341 0 0 0 0.0312 -0.0312 0.20341 0.20341 0 0 0 0.0312 -0.0625 0.20341 0.20341 0 0 0 0.0313 -0.0625v-0.5625a0.20341 0.20341 0 0 0 -0.03125 -0.03125 0.20341 0.20341 0 0 0 0 -0.0625 0.20341 0.20341 0 0 0 -0.0312 -0.0313 0.20341 0.20341 0 0 0 -0.0312 -0.0313 0.20341 0.20341 0 0 0 -0.0626 -0.0312 0.20341 0.20341 0 0 0 -0.0624 -0.0312zm-2.5312 1.4375a0.20341 0.20341 0 0 0 -0.03125 0.03125 0.20341 0.20341 0 0 0 -0.0625 0 0.20341 0.20341 0 0 0 -0.0313 0.032 0.20341 0.20341 0 0 0 -0.0313 0.031 0.20341 0.20341 0 0 0 -0.0312 0.063 0.20341 0.20341 0 0 0 0 0.0625 0.20341 0.20341 0 0 0 0 0.03125c0.00499 0.04704 0.00133 0.11893 0 0.21875s-0.035797 0.21647 0.03125 0.34375a0.20341 0.20341 0 0 0 0.03125 0.03125 0.20341 0.20341 0 0 0 0.03125 0.03125 0.20341 0.20341 0 0 0 0.0625 0.03125 0.20341 0.20341 0 0 0 0.03125 0 0.20341 0.20341 0 0 0 0.03125 0.03125h2.5a0.20341 0.20341 0 0 0 0.0313 -0.031 0.20341 0.20341 0 0 0 0.0625 0 0.20341 0.20341 0 0 0 0.03125 -0.03125 0.20341 0.20341 0 0 0 0.03125 -0.03125 0.20341 0.20341 0 0 0 0.03125 -0.0625 0.20341 0.20341 0 0 0 0 -0.0625 0.20341 0.20341 0 0 0 0 -0.03125c-0.00499-0.04704-0.00133-0.11893 0-0.21875s0.035796-0.21647-0.03125-0.34375a0.20341 0.20341 0 0 0 -0.0312 -0.031 0.20341 0.20341 0 0 0 -0.0313 -0.031 0.20341 0.20341 0 0 0 -0.0625 -0.032 0.20341 0.20341 0 0 0 -0.03125 0 0.20341 0.20341 0 0 0 -0.03125 -0.03125h-2.5z" transform="matrix(.96341 0 0 .95140 .29274 .32649)"/>
</svg>
